X: 11
T:Vals from Boda
M:3/4
L:1/8
C:Trad. Swedish
S:The Dancing Bow
K:G
E2|:B3cBA|B3cBA|B4e2|B3d ef|g4g2|f4e2|f3g fe|B6|!e4e2|d4c2|B3c BA|G3F GA
|B3cB2|A3BD2|E3F ED|E6:|!
|:e3ee2|g2f2e2|d3e dc|B6|A3Bc2|c2B2A2|B3A Bc|d3B cd|!e3ee2|g2f2e2|d3e dc
|B6|A3Bc2|D2E2F2|G3A GF|G6:|
